X:177
U: ~ = !turn!
%%topmargin 3cm
T:Rose in the Heather
B:Traditional Irish Fiddle Tunes. Randy Miller and Jack Perron.
Z:Transcribed by Ralph Palmer
R:Jig
M:6/8
L:1/8
K:D
A, | F2 F PEDB, | DFA {/c}BAF | ABd ede | gdB AGE |
FAF EGE | DFA ABd edB AGE | FDC D2 ::
e | fdB ABd | f2 a {/b}afd | ~g3 fed | B2 e efg |
fdB ABd | f2 a {/b}afa | baf gfe | [1 f/2e/2dc d2 :| [2 gdB AGE ||
